icons/circle/48/orange-canvas.svg

<svg xmlns="http://www.w3.org/2000/svg" viewBox="0 0 48 48">
 <defs>
  <linearGradient id="linearGradient3764" x1="1" x2="47" gradientUnits="userSpaceOnUse" gradientTransform="matrix(0,-1,1,0,-1.5e-6,47.999998)">
   <stop style="stop-color:#f8bd70;stop-opacity:1"/>
   <stop offset="1" style="stop-color:#f9c683;stop-opacity:1"/>
  </linearGradient>
  <radialGradient id="radialGradient4171" cx="24" cy="24" r="15" gradientUnits="userSpaceOnUse">
   <stop style="stop-color:#e28332;stop-opacity:1"/>
   <stop offset="1" style="stop-color:#e07a24;stop-opacity:1"/>
  </radialGradient>
 </defs>
 <g>
  <path d="m 36.31 5 c 5.859 4.062 9.688 10.831 9.688 18.5 c 0 12.426 -10.07 22.5 -22.5 22.5 c -7.669 0 -14.438 -3.828 -18.5 -9.688 c 1.037 1.822 2.306 3.499 3.781 4.969 c 4.085 3.712 9.514 5.969 15.469 5.969 c 12.703 0 23 -10.298 23 -23 c 0 -5.954 -2.256 -11.384 -5.969 -15.469 c -1.469 -1.475 -3.147 -2.744 -4.969 -3.781 z m 4.969 3.781 c 3.854 4.113 6.219 9.637 6.219 15.719 c 0 12.703 -10.297 23 -23 23 c -6.081 0 -11.606 -2.364 -15.719 -6.219 c 4.16 4.144 9.883 6.719 16.219 6.719 c 12.703 0 23 -10.298 23 -23 c 0 -6.335 -2.575 -12.06 -6.719 -16.219 z" style="opacity:0.05"/>
  <path d="m 41.28 8.781 c 3.712 4.085 5.969 9.514 5.969 15.469 c 0 12.703 -10.297 23 -23 23 c -5.954 0 -11.384 -2.256 -15.469 -5.969 c 4.113 3.854 9.637 6.219 15.719 6.219 c 12.703 0 23 -10.298 23 -23 c 0 -6.081 -2.364 -11.606 -6.219 -15.719 z" style="opacity:0.1"/>
  <path d="m 31.25 2.375 c 8.615 3.154 14.75 11.417 14.75 21.13 c 0 12.426 -10.07 22.5 -22.5 22.5 c -9.708 0 -17.971 -6.135 -21.12 -14.75 a 23 23 0 0 0 44.875 -7 a 23 23 0 0 0 -16 -21.875 z" style="opacity:0.2"/>
 </g>
 <g>
  <path d="m 24 1 c 12.703 0 23 10.297 23 23 c 0 12.703 -10.297 23 -23 23 -12.703 0 -23 -10.297 -23 -23 0 -12.703 10.297 -23 23 -23 z" style="fill:url(#linearGradient3764);fill-opacity:1"/>
 </g>
 <g>
  <path d="m 40.03 7.531 c 3.712 4.084 5.969 9.514 5.969 15.469 0 12.703 -10.297 23 -23 23 c -5.954 0 -11.384 -2.256 -15.469 -5.969 4.178 4.291 10.01 6.969 16.469 6.969 c 12.703 0 23 -10.298 23 -23 0 -6.462 -2.677 -12.291 -6.969 -16.469 z" style="opacity:0.1"/>
 </g>
 <circle r="15" cy="25" cx="25" style="fill:#000;opacity:0.1;fill-opacity:1;stroke:none"/>
 <circle cx="24" cy="24" r="15" style="fill:url(#radialGradient4171);opacity:1;fill-opacity:1;stroke:none"/>
 <path d="m 32 28 c -1 2 -3 6 -8 6 -5 0 -7 -3 -8 -5 3 1.79 12 1 16 -1 z" style="fill:#f1d24c;opacity:1;fill-opacity:1;stroke:none"/>
 <path d="m 32 28 c -4 2 -13 2.79 -16 1 0.488 0.975 1.221 2.185 2.416 3.172 c -0.625 -0.738 -1.084 -1.508 -1.416 -2.172 2.578 1.539 9.582 1.169 14.04 -0.234 0.401 -0.65 0.711 -1.27 0.959 -1.766" style="fill:#000;opacity:0.1;fill-opacity:1;stroke:none"/>
 <path d="m 19 17 c -2.419 0 -4.437 1.718 -4.9 4 l -4.795 0 a 15 15 0 0 0 -0.256 2 l 5.05 0 c 0.463 2.282 2.481 4 4.9 4 c 2.761 0 5 -2.239 5 -5 c 0 -0.788 -0.187 -1.564 -0.545 -2.266 c 0.379 -0.464 0.946 -0.735 1.545 -0.734 c 0.6 0 1.168 0.273 1.547 0.738 c -0.358 0.7 -0.546 1.475 -0.547 2.262 c -0.002 2.761 2.239 5 5 5 c 2.419 0 4.437 -1.718 4.9 -4 l 3.064 0 a 15 15 0 0 0 -0.285 -2 l -2.779 0 c -0.463 -2.283 -2.481 -4 -4.9 -4 c -1.168 0 -2.298 0.412 -3.195 1.16 c -0.746 -0.74 -1.754 -1.16 -2.805 -1.16 c -1.05 -0.001 -2.058 0.418 -2.805 1.156 c -0.897 -0.747 -2.028 -1.156 -3.195 -1.156 z" style="fill:#000;opacity:0.1;fill-opacity:1;stroke:none"/>
 <path d="m 18 16 c -2.761 0 -5 2.239 -5 5 0 2.761 2.239 5 5 5 2.761 0 5 -2.239 5 -5 0 -0.788 -0.187 -1.564 -0.545 -2.266 c 0.379 -0.464 0.946 -0.735 1.545 -0.734 c 0.6 0 1.168 0.273 1.547 0.738 c -0.358 0.7 -0.546 1.475 -0.547 2.262 c -0.002 2.761 2.239 5 5 5 2.761 0 5 -2.239 5 -5 0 -2.761 -2.239 -5 -5 -5 -1.168 0 -2.298 0.412 -3.195 1.16 c -0.746 -0.74 -1.754 -1.16 -2.805 -1.16 -1.05 -0.001 -2.058 0.418 -2.805 1.156 -0.897 -0.747 -2.028 -1.156 -3.195 -1.156" style="fill:#3c3c3c;opacity:1;fill-opacity:1;stroke:none"/>
 <path d="M 9.559 20 A 15 15 0 0 0 9.15 22 L 14 22 L 14 20 L 9.559 20 z" style="fill:#3c3c3c;opacity:1;fill-opacity:1;stroke:none"/>
 <path d="m 34 20 l 0 2 l 4.848 0 a 15 15 0 0 0 -0.393 -2 l -4.455 0 z" style="fill:#3c3c3c;opacity:1;fill-opacity:1;stroke:none"/>
 <circle cx="18" cy="21" r="3" style="fill:#96b8c4;opacity:1;fill-opacity:1;stroke:none"/>
 <circle r="3" cy="21" cx="30" style="fill:#96b8c4;opacity:1;fill-opacity:1;stroke:none"/>
</svg>

<svg xmlns="http://www.w3.org/2000/svg" viewBox="0 0 48 48">
  <defs>
    <linearGradient id="a" x1="1" x2="47" gradientUnits="userSpaceOnUse" gradientTransform="rotate(-90 24 24)">
      <stop stop-color="#f8bd70"/>
      <stop offset="1" stop-color="#f9c683"/>
    </linearGradient>
    <radialGradient id="b" cx="24" cy="24" r="15" gradientUnits="userSpaceOnUse">
      <stop stop-color="#e28332"/>
      <stop offset="1" stop-color="#e07a24"/>
    </radialGradient>
  </defs>
  <path d="M36.31 5c5.859 4.062 9.688 10.831 9.688 18.5 0 12.426-10.07 22.5-22.5 22.5-7.669 0-14.438-3.828-18.5-9.688a23.24 23.24 0 0 0 3.781 4.969 22.923 22.923 0 0 0 15.469 5.969c12.703 0 23-10.298 23-23a22.92 22.92 0 0 0-5.969-15.469A23.216 23.216 0 0 0 36.31 5zm4.969 3.781A22.911 22.911 0 0 1 47.498 24.5c0 12.703-10.297 23-23 23a22.909 22.909 0 0 1-15.719-6.219C12.939 45.425 18.662 48 24.998 48c12.703 0 23-10.298 23-23 0-6.335-2.575-12.06-6.719-16.219z" opacity=".05"/>
  <path d="M41.28 8.781a22.923 22.923 0 0 1 5.969 15.469c0 12.703-10.297 23-23 23A22.92 22.92 0 0 1 8.78 41.281 22.911 22.911 0 0 0 24.499 47.5c12.703 0 23-10.298 23-23A22.909 22.909 0 0 0 41.28 8.781z" opacity=".1"/>
  <path d="M31.25 2.375C39.865 5.529 46 13.792 46 23.505c0 12.426-10.07 22.5-22.5 22.5-9.708 0-17.971-6.135-21.12-14.75a23 23 0 0 0 44.875-7 23 23 0 0 0-16-21.875z" opacity=".2"/>
  <path d="M24 1c12.703 0 23 10.297 23 23S36.703 47 24 47 1 36.703 1 24 11.297 1 24 1z" fill="url(#a)"/>
  <path d="M40.03 7.531A22.922 22.922 0 0 1 45.999 23c0 12.703-10.297 23-23 23A22.92 22.92 0 0 1 7.53 40.031C11.708 44.322 17.54 47 23.999 47c12.703 0 23-10.298 23-23 0-6.462-2.677-12.291-6.969-16.469z" opacity=".1"/>
  <circle r="15" cy="25" cx="25" opacity=".1"/>
  <circle cx="24" cy="24" r="15" fill="url(#b)"/>
  <path d="M32 28c-1 2-3 6-8 6s-7-3-8-5c3 1.79 12 1 16-1z" fill="#f1d24c"/>
  <path d="M32 28c-4 2-13 2.79-16 1 .488.975 1.221 2.185 2.416 3.172A10.923 10.923 0 0 1 17 30c2.578 1.539 9.582 1.169 14.04-.234.401-.65.711-1.27.959-1.766M19 17a5.002 5.002 0 0 0-4.9 4H9.305a15 15 0 0 0-.256 2h5.05a5.002 5.002 0 0 0 9.9-1c0-.788-.187-1.564-.545-2.266a1.992 1.992 0 0 1 3.092.004A4.982 4.982 0 0 0 25.999 22a5 5 0 0 0 9.9 1h3.064a15 15 0 0 0-.285-2h-2.779a5 5 0 0 0-4.9-4 4.99 4.99 0 0 0-3.195 1.16A3.987 3.987 0 0 0 24.999 17a3.991 3.991 0 0 0-2.805 1.156A4.994 4.994 0 0 0 18.999 17z" opacity=".1"/>
  <path d="M18 16a5 5 0 1 0 5 5c0-.788-.187-1.564-.545-2.266a1.992 1.992 0 0 1 3.092.004A4.982 4.982 0 0 0 25 21a5 5 0 1 0 10 0 5 5 0 0 0-5-5 4.99 4.99 0 0 0-3.195 1.16A3.987 3.987 0 0 0 24 16a3.991 3.991 0 0 0-2.805 1.156A4.994 4.994 0 0 0 18 16" fill="#3c3c3c"/>
  <path d="M9.559 20a15 15 0 0 0-.409 2H14v-2H9.559zM34 20v2h4.848a15 15 0 0 0-.393-2H34z" fill="#3c3c3c"/>
  <circle cx="18" cy="21" r="3" fill="#96b8c4"/>
  <circle r="3" cy="21" cx="30" fill="#96b8c4"/>
</svg>
